packages/ffe-icons/icons/open/300/md/weather_snowy.svg

<svg xmlns="http://www.w3.org/2000/svg" height="24" viewBox="0 -960 960 960" width="24"><path d="M260-208.462q-17.154 0-29.346-12.192T218.462-250q0-17.154 12.192-29.346T260-291.538q17.154 0 29.346 12.192T301.538-250q0 17.154-12.192 29.346T260-208.462Zm120 120q-17.154 0-29.346-12.192T338.462-130q0-17.154 12.192-29.346T380-171.538q17.154 0 29.346 12.192T421.538-130q0 17.154-12.192 29.346T380-88.462Zm120-120q-17.154 0-29.346-12.192T458.462-250q0-17.154 12.192-29.346T500-291.538q17.154 0 29.346 12.192T541.538-250q0 17.154-12.192 29.346T500-208.462Zm240 0q-17.154 0-29.346-12.192T698.462-250q0-17.154 12.192-29.346T740-291.538q17.154 0 29.346 12.192T781.538-250q0 17.154-12.192 29.346T740-208.462Zm-120 120q-17.154 0-29.346-12.192T578.462-130q0-17.154 12.192-29.346T620-171.538q17.154 0 29.346 12.192T661.538-130q0 17.154-12.192 29.346T620-88.462ZM300-370.001q-87.154 0-148.576-61.423Q90.001-492.846 90.001-580q0-80.307 53.653-139.615 53.654-59.307 133.5-69.154 30.881-56.64 84.441-88.935 53.559-32.295 118.257-32.295 88.225 0 152.417 57.307 64.192 57.308 76.269 142.923 71.308 5.231 116.384 54.116 45.077 48.884 45.077 115.769 0 70.653-49.583 120.268Q770.833-370.001 700-370.001H300Zm0-59.998h400q45.846 0 77.924-32.077 32.077-32.078 32.077-77.924 0-45.846-32.077-77.924-32.078-32.077-77.924-32.077h-49.999V-680q0-70.125-49.955-120.063t-120.105-49.938q-51.018 0-92.974 27.667-41.955 27.667-63.198 74.488l-7.363 17.845H298q-61.131 2.143-104.566 45.536T149.999-580q0 62.143 43.929 106.072T300-429.999ZM480-540Z"/></svg>

<svg xmlns="http://www.w3.org/2000/svg" height="24" viewBox="0 -960 960 960" width="24"><path d="M260-208.46q-17.15 0-29.35-12.19-12.19-12.2-12.19-29.35 0-17.15 12.19-29.35 12.2-12.19 29.35-12.19 17.15 0 29.35 12.19 12.19 12.2 12.19 29.35 0 17.15-12.19 29.35-12.2 12.19-29.35 12.19Zm120 120q-17.15 0-29.35-12.19-12.19-12.2-12.19-29.35 0-17.15 12.19-29.35 12.2-12.19 29.35-12.19 17.15 0 29.35 12.19 12.19 12.2 12.19 29.35 0 17.15-12.19 29.35-12.2 12.19-29.35 12.19Zm120-120q-17.15 0-29.35-12.19-12.19-12.2-12.19-29.35 0-17.15 12.19-29.35 12.2-12.19 29.35-12.19 17.15 0 29.35 12.19 12.19 12.2 12.19 29.35 0 17.15-12.19 29.35-12.2 12.19-29.35 12.19Zm240 0q-17.15 0-29.35-12.19-12.19-12.2-12.19-29.35 0-17.15 12.19-29.35 12.2-12.19 29.35-12.19 17.15 0 29.35 12.19 12.19 12.2 12.19 29.35 0 17.15-12.19 29.35-12.2 12.19-29.35 12.19Zm-120 120q-17.15 0-29.35-12.19-12.19-12.2-12.19-29.35 0-17.15 12.19-29.35 12.2-12.19 29.35-12.19 17.15 0 29.35 12.19 12.19 12.2 12.19 29.35 0 17.15-12.19 29.35-12.2 12.19-29.35 12.19ZM300-370q-87.15 0-148.58-61.42Q90-492.85 90-580q0-80.31 53.65-139.61 53.66-59.31 133.5-69.16 30.89-56.64 84.44-88.93Q415.15-910 479.85-910q88.23 0 152.42 57.31 64.19 57.31 76.27 142.92 71.31 5.23 116.38 54.12Q870-606.77 870-539.88q0 70.65-49.58 120.26Q770.83-370 700-370H300Zm0-60h400q45.85 0 77.92-32.08Q810-494.15 810-540t-32.08-77.92Q745.85-650 700-650h-50v-30q0-70.13-49.95-120.06Q550.09-850 479.94-850q-51.02 0-92.97 27.67-41.96 27.66-63.2 74.48L316.41-730H298q-61.13 2.14-104.57 45.54Q150-641.07 150-580q0 62.14 43.93 106.07Q237.86-430 300-430Zm180-110Z"/></svg>
